icons/paperclip-24.svg

<svg width="24" height="24" viewBox="0 0 24 24" fill="none" xmlns="http://www.w3.org/2000/svg">
<g clip-path="url(#clip0_7892_71697)">
<path fill-rule="evenodd" clip-rule="evenodd" d="M19.1872 3.58794C18.1133 2.514 16.3721 2.514 15.2981 3.58794L5.57541 13.3107C3.81806 15.068 3.81805 17.9173 5.57541 19.6746C7.33277 21.432 10.182 21.432 11.9394 19.6746L20.6014 11.0126C20.8943 10.7197 21.3692 10.7197 21.6621 11.0126C21.955 11.3055 21.955 11.7803 21.6621 12.0732L13 20.7353C10.6569 23.0784 6.8579 23.0784 4.51475 20.7353C2.17161 18.3921 2.17161 14.5931 4.51475 12.25L14.2375 2.52728C15.8972 0.867555 18.5882 0.867555 20.2479 2.52728C21.9076 4.18701 21.9076 6.87796 20.2479 8.53769L11.0555 17.7301C10.5692 18.2164 9.90298 18.509 9.19681 18.509C8.4885 18.509 7.8279 18.2148 7.34318 17.7301C7.1474 17.5343 7.00534 17.2599 6.9131 17.0041C6.81503 16.7321 6.74536 16.4043 6.74536 16.0576C6.74535 15.3577 7.02893 14.6853 7.51983 14.1944L15.6516 6.0627C15.9445 5.7698 16.4193 5.7698 16.7122 6.0627C17.0051 6.35559 17.0051 6.83046 16.7122 7.12336L8.5805 15.2551C8.36693 15.4687 8.24535 15.7611 8.24535 16.0576C8.24536 16.2089 8.27703 16.3645 8.32417 16.4952C8.34732 16.5595 8.3715 16.6101 8.39149 16.645C8.40159 16.6627 8.40864 16.6729 8.41171 16.6772C8.63038 16.892 8.91227 17.009 9.19681 17.009C9.48691 17.009 9.77666 16.8876 9.99483 16.6694L19.1872 7.47703C20.2612 6.40309 20.2612 4.66189 19.1872 3.58794Z" fill="black"/>
</g>
<defs>
<clipPath id="clip0_7892_71697">
<rect width="24" height="24" fill="white"/>
</clipPath>
</defs>
</svg>

<svg xmlns="http://www.w3.org/2000/svg" width="24" height="24" viewBox="0 0 24 24"><path fill-rule="evenodd" d="M19.187 3.588a2.75 2.75 0 00-3.889 0L5.575 13.31a4.5 4.5 0 106.364 6.364l8.662-8.662a.75.75 0 011.061 1.06L13 20.735a6 6 0 01-8.485-8.485l9.723-9.723a4.25 4.25 0 116.01 6.01l-9.193 9.193a2.638 2.638 0 01-1.858.779 2.626 2.626 0 01-1.854-.779c-.196-.196-.338-.47-.43-.726a2.825 2.825 0 01-.168-.946c0-.7.284-1.373.775-1.864l8.132-8.131a.75.75 0 111.06 1.06l-8.131 8.132a1.144 1.144 0 00-.336.803 1.326 1.326 0 00.146.587c.01.018.018.028.02.032.22.215.501.332.786.332.29 0 .58-.121.798-.34l9.192-9.192a2.75 2.75 0 000-3.89z"/></svg>
